app/dist/common/images/mannkind.svg

<svg height="18" width="18" xmlns="http://www.w3.org/2000/svg"><path d="m0 0h18v18h-18z" fill="#bd1a8d"/><path d="m11.38 6c-.88 0-1.54.3-2.1 1.1a1.96 1.96 0 0 0 -1.87-1.1c-.54 0-1.19.22-1.61.8l-.13-.8h-1.67v6h2v-3.13c0-.76.32-1.38 1.01-1.37.7.01.99.4.99 1.3v3.2h2v-3.13c0-.76.4-1.38 1.09-1.37.58 0 .91.4.91 1.3v3.2h2v-3.2c0-2.18-1.3-2.8-2.62-2.8z" fill="#fff"/></svg>

<!-- by TradingView --><svg xmlns="http://www.w3.org/2000/svg" width="18" height="18"><path fill="#BD1A8D" d="M0 0h18v18H0z"/><path d="M11.38 6c-.88 0-1.54.3-2.1 1.1A1.96 1.96 0 007.41 6c-.54 0-1.19.22-1.61.8L5.67 6H4v6h2V8.87c0-.76.32-1.38 1.01-1.37.7.01.99.4.99 1.3V12h2V8.87c0-.76.4-1.38 1.09-1.37.58 0 .91.4.91 1.3V12h2V8.8C14 6.62 12.7 6 11.38 6z" fill="#fff"/></svg>
